packages/devextreme-scss/images/icons/material/packagebox.svg

<!-- Generated by IcoMoon.io -->
<svg version="1.1" xmlns="http://www.w3.org/2000/svg" width="24" height="24" viewBox="0 0 24 24">
<path d="M21 16.5c0 0.38-0.21 0.71-0.53 0.88l-7.9 4.44c-0.16 0.12-0.36 0.18-0.57 0.18s-0.41-0.060-0.57-0.18l-7.9-4.44c-0.32-0.17-0.53-0.5-0.53-0.88v-9c0-0.38 0.21-0.71 0.53-0.88l7.9-4.44c0.16-0.12 0.36-0.18 0.57-0.18s0.41 0.060 0.57 0.18l7.9 4.44c0.32 0.17 0.53 0.5 0.53 0.88v9zM12 4.15l-1.89 1.070 5.89 3.39 1.96-1.11-5.96-3.35zM6.040 7.5l5.96 3.35 1.96-1.1-5.88-3.4-2.040 1.15zM5 15.91l6 3.38v-6.71l-6-3.37v6.7zM19 15.91v-6.7l-6 3.37v6.71l6-3.38z"></path>
</svg>

<svg width="24" height="24" viewBox="0 0 24 24" fill="none" xmlns="http://www.w3.org/2000/svg">
<title>packagebox</title>
<path d="M21 16.5C21 16.88 20.79 17.21 20.47 17.38L12.57 21.82C12.41 21.94 12.21 22 12 22C11.79 22 11.59 21.94 11.43 21.82L3.53 17.38C3.21 17.21 3 16.88 3 16.5V7.5C3 7.12 3.21 6.79 3.53 6.62L11.43 2.18C11.59 2.06 11.79 2 12 2C12.21 2 12.41 2.06 12.57 2.18L20.47 6.62C20.79 6.79 21 7.12 21 7.5V16.5ZM12 4.15L10.11 5.22L16 8.61L17.96 7.5L12 4.15ZM6.04 7.5L12 10.85L13.96 9.75L8.08 6.35L6.04 7.5ZM5 15.91L11 19.29V12.58L5 9.21V15.91ZM19 15.91V9.21L13 12.58V19.29L19 15.91Z" fill="black"/>
</svg>
